X:1
T:Partition sans titre
C:Compositeur / Arrangeur
L:1/8
M:4/4
I:linebreak $
K:A
V:1 treble nm="Violon" snm="Vln."
V:1
"F#m" f2 fg fece |"F#m" fefa"A" eAce |"F#m" f2 fg fece | fgaf"A" eAce ::"Bm" fBBA B2 ce | %5
 fB PB2"A" eAce |"Bm" fBBA B2 ce |1"F#m" fgaf"A" eAce :|2"F#m" fgaf"A" eAcA |:"Bm" PB2 bB aBgB | %10
 B2 af"A" eAcA |"Bm" B2 bB aBgB |1"F#m" fgaf"A" eAcA :|2"F#m" fgaf"A" eAce |] %14
